X:77
T: Bu hoscht du hin das Zautle
N: D0085
O: Europa, Mitteleuropa, Deutschland, Gottschee
N: Unterstimme in parallelen Terzen, ergaenzt die Skala zur Heptatonik
N: (Ionisch) ; erste Zeile rhythmisch korrigiert (Pause)
N: Inzipit = Variante zum Lied; DVA-Signatur 85a
R: Liebes - Lied
M: 4/4
L: 1/8
K: F
C2 | c3cB2c2 | A4A2
c2 | B3Bc2B2 | A4c2z2 |
B3Bf2d2 | c3cc2f2 |
e3dc2B2 | A4z2

@@@ Tune index: 2599
